src/lib/packages/icons/src/assets/filled/shopping-cart-star.svg

<svg width="24" height="24" viewBox="0 0 24 24" fill="none" xmlns="http://www.w3.org/2000/svg">
<path d="M9.021 22.25C8.332 22.25 7.76599 21.69 7.76599 21C7.76599 20.31 8.32099 19.75 9.01099 19.75H9.021C9.711 19.75 10.271 20.31 10.271 21C10.271 21.69 9.711 22.25 9.021 22.25ZM18.271 21C18.271 20.31 17.711 19.75 17.021 19.75H17.011C16.321 19.75 15.766 20.31 15.766 21C15.766 21.69 16.331 22.25 17.021 22.25C17.711 22.25 18.271 21.69 18.271 21ZM20.96 8.36L19.95 14.54C19.69 15.96 19.1 17 17 17H8.72998C7.72998 17 6.89 16.27 6.75 15.28L5.24902 4.832C5.15902 4.202 4.63901 3.75 4.01001 3.75H3.75C3.336 3.75 3 3.414 3 3C3 2.586 3.336 2.25 3.75 2.25H4.01001C5.39301 2.25 6.53803 3.244 6.73303 4.614L6.94202 6H19C20.24 6 21.19 7.13 20.96 8.36ZM16.214 10.569L14.72 10.353C14.611 10.337 14.517 10.269 14.469 10.171L13.822 8.86501C13.691 8.60001 13.312 8.60001 13.181 8.86501L12.5341 10.171C12.4851 10.269 12.391 10.337 12.283 10.353L10.7889 10.569C10.5149 10.609 10.405 10.945 10.604 11.137L11.684 12.185C11.763 12.262 11.799 12.372 11.78 12.48L11.533 13.913C11.483 14.204 11.789 14.427 12.052 14.289L13.347 13.611C13.444 13.56 13.56 13.56 13.657 13.611L14.953 14.289C15.215 14.426 15.5209 14.204 15.4709 13.913L15.224 12.478C15.205 12.37 15.2409 12.259 15.3199 12.183L16.4 11.135C16.597 10.945 16.488 10.609 16.214 10.569Z" fill="currentColor"/>
</svg>

<svg xmlns="http://www.w3.org/2000/svg" width="24" height="24" fill="none"><path fill="currentColor" d="M9.021 22.25c-.689 0-1.255-.56-1.255-1.25s.555-1.25 1.245-1.25h.01a1.25 1.25 0 0 1 0 2.5Zm9.25-1.25c0-.69-.56-1.25-1.25-1.25h-.01c-.69 0-1.245.56-1.245 1.25s.565 1.25 1.255 1.25 1.25-.56 1.25-1.25ZM20.96 8.36l-1.01 6.18C19.69 15.96 19.1 17 17 17H8.73c-1 0-1.84-.73-1.98-1.72L5.249 4.832A1.243 1.243 0 0 0 4.01 3.75h-.26a.75.75 0 0 1 0-1.5h.26a2.73 2.73 0 0 1 2.723 2.364L6.942 6H19c1.24 0 2.19 1.13 1.96 2.36Zm-4.746 2.209-1.494-.216a.333.333 0 0 1-.251-.182l-.647-1.306a.358.358 0 0 0-.641 0l-.647 1.306a.336.336 0 0 1-.251.182l-1.494.216a.333.333 0 0 0-.185.568l1.08 1.048a.331.331 0 0 1 .096.295l-.247 1.433a.357.357 0 0 0 .519.376l1.295-.678a.333.333 0 0 1 .31 0l1.296.678a.357.357 0 0 0 .518-.376l-.247-1.435a.33.33 0 0 1 .096-.295l1.08-1.048a.332.332 0 0 0-.186-.566Z"/></svg>
